app/images/dist/monitor-mobbile.svg

<svg width="24" height="24" viewBox="0 0 24 24" fill="none" xmlns="http://www.w3.org/2000/svg">
<path d="M10 16.95H6.21C2.84 16.95 2 16.11 2 12.74V6.74003C2 3.37003 2.84 2.53003 6.21 2.53003H16.74C20.11 2.53003 20.95 3.37003 20.95 6.74003" stroke="#292D32" stroke-width="1.5" stroke-linecap="round" stroke-linejoin="round"/>
<path d="M10 21.47V16.95" stroke="#292D32" stroke-width="1.5" stroke-linecap="round" stroke-linejoin="round"/>
<path d="M2 12.95H10" stroke="#292D32" stroke-width="1.5" stroke-linecap="round" stroke-linejoin="round"/>
<path d="M6.74023 21.47H10.0002" stroke="#292D32" stroke-width="1.5" stroke-linecap="round" stroke-linejoin="round"/>
<path d="M22.0003 12.8V18.51C22.0003 20.88 21.4103 21.47 19.0403 21.47H15.4903C13.1203 21.47 12.5303 20.88 12.5303 18.51V12.8C12.5303 10.43 13.1203 9.84003 15.4903 9.84003H19.0403C21.4103 9.84003 22.0003 10.43 22.0003 12.8Z" stroke="#292D32" stroke-width="1.5" stroke-linecap="round" stroke-linejoin="round"/>
<path d="M17.2445 18.25H17.2535" stroke="#292D32" stroke-width="2" stroke-linecap="round" stroke-linejoin="round"/>
</svg>

<svg width="24" height="24" fill="none" xmlns="http://www.w3.org/2000/svg"><path d="M10 16.95H6.21c-3.37 0-4.21-.84-4.21-4.21v-6c0-3.37.84-4.21 4.21-4.21h10.53c3.37 0 4.21.84 4.21 4.21M10 21.47v-4.52m-8-4h8m-3.26 8.52H10" stroke="#292D32" stroke-width="1.5" stroke-linecap="round" stroke-linejoin="round"/><path d="M22 12.8v5.71c0 2.37-.59 2.96-2.96 2.96h-3.55c-2.37 0-2.96-.59-2.96-2.96V12.8c0-2.37.59-2.96 2.96-2.96h3.55c2.37 0 2.96.59 2.96 2.96Z" stroke="#292D32" stroke-width="1.5" stroke-linecap="round" stroke-linejoin="round"/><path d="M17.244 18.25h.01" stroke="#292D32" stroke-width="2" stroke-linecap="round" stroke-linejoin="round"/></svg>
